X:1
T:Title
%%score { 1 | 2 }
L:1/8
M:3/4
K:C
V:1 treble nm="Grand Piano"
V:2 bass 
V:1
 z2 z2[Q:1/4=100] [EG][EG] | [FG]2 [FG]2 [FA][FB] | [Ec]2 [EG]2 [EG][EG] | B3 A G[DF] | %4
[M:2/4] [CE]4 |[M:1/4] [EG][EG] |[M:3/4] [FG]2 [FG]2 [FA][FB] | [Ed]2 [Ec]2 [Ec][Ec] | %8
 [DB]3 [Ec] [DB][CA] |[M:2/4] [G,B,G]4 |[M:1/4] GG |[M:3/4] G2 B2 BG | [EG]2 [Ec]2 [Ec][EB] | %13
 A3 c BA |[M:2/4] [EG]4 |[M:1/4] [CE][DF] |[M:3/4] [EG]2 [Ec]2 [Ge][Ge] | d2 A2 cA | G3 c Bd | %19
[M:2/4] [Ec]4 |] %20
V:2
 z2 z2 [C,C][C,C] | [D,B,]2 [G,B,]2 [G,,G,][G,,G,] | [C,G,]2 [C,C]2 [C,C][C,C] | %3
 [G,DF]3 [G,CF][K:bass] [G,B,D][B,,G,] |[M:2/4] [C,G,]4 |[M:1/4] [C,C][C,C] | %6
[M:3/4] [D,B,]2 [G,B,]2 [G,,G,][G,,G,] | [C,G,]2 [C,G,]2 [C,G,][C,G,] | %8
 [D,G,]3 [D,G,] [D,^F,][D,F,] |[M:2/4] G,,4 |[M:1/4] G,G, | %11
[M:3/4][K:treble] [G,B,F]2 [G,DF]2 [G,DF][G,B,F] | [C,C]2 [C,C]2 [C,C][C,C] | %13
 [F,CF]3 [F,A,F] [F,B,F][F,CF] |[M:2/4] [C,C]4 |[M:1/4] [C,G,][C,G,] | %16
[M:3/4] [C,C]2 [C,G,]2 [C,C][C,C] | [F,A,F]2 [F,CF]2 [F,A,F][F,CF] | [G,CE]3 [G,CE] [G,DF][G,B,F] | %19
[M:2/4][K:bass] [C,C]4 |] %20

